!!!COM: Johann Sebastian Bach
!!!OPR: Das musicalische Opfer
!!!OTA: The Musical Offering
!!!OTL: Per agumentationem, contrario motu (Canon 4)
!!!SCT: BWV 1079
**kern	**kern	**kern	**kern
*guida	*CF	*conseq	*CFbackground
*k[b-e-a-]	*k[b-e-a-]	*k[b-e-a-]	*k[b-e-a-]
*c:	*c:	*c:	*c:
*M4/4	*M4/4	*M4/4	*M4/4
*>[A,B,B]	*>[A,B,B]	*>[A,B,B]	*>[A,B,B]
*>A	*>A	*>A	*>A
=1-	=1-	=1-	=1-
8r	[4c	2r	2c
16r	.	.	.
32c	.	.	.
32d	.	.	.
8.e-	16c]	.	.
.	16Bn	.	.
.	16c	.	.
16f	16d	.	.
4.g	4.e-	8r	2e-
.	.	16g	.
.	.	16f	.
.	.	[4e-	.
32r	8f	.	.
32f	.	.	.
32e-	.	.	.
32d	.	.	.
=2	=2	=2	=2
8.c	[4g	8e-]	2g
.	.	8d	.
16B-	.	.	.
8.A-	16g]	2.c	.
.	16e-	.	.
.	16f	.	.
16G	16g	.	.
[8F	4.a-	.	2a-
32F]	.	.	.
32C	.	.	.
32D	.	.	.
32En	.	.	.
8.F	.	.	.
.	16r	.	.
16A-	16c	.	.
=3!!:	=3!!:	=3!!:	=3!!:
*>B	*>B	*>B	*>B
4G	[4Bn	16r	2Bn
.	.	16d	.
.	.	16e-	.
.	.	16f	.
4r	16B]	[4g	.
.	16G	.	.
.	16B	.	.
.	16d	.	.
8r	4.g	8g]	2g
16r	.	8an	.
16e-	.	.	.
8.d	.	[4bn	.
.	16r	.	.
16c	16an	.	.
=4	=4	=4	=4
8.d	4.f#t	8b]	2f#
.	.	8cc	.
16An	.	.	.
8.Bn	.	[4dd	.
.	16r	.	.
16c	16en	.	.
8.Bn	4.fn	16dd]	2fn
.	.	16gg	.
.	.	16ff	.
16G	.	16een	.
8.A	.	[4dd	.
.	16r	.	.
16B	16g	.	.
=5	=5	=5	=5
8.c	4.e	8dd]	2e
.	.	8bn	.
16G	.	.	.
8.c	.	2cc	.
.	16r	.	.
16B-	16d	.	.
8.A-	[2e-	.	2e-
16E-	.	.	.
8.A-	.	4r	.
16G	.	.	.
=6	=6	=6	=6
4.F	8e-]	4r	2d
.	8d	.	.
.	8.d	4r	.
32r	.	.	.
32G	.	.	.
32F	16d-	.	.
32En	.	.	.
8.F	8.d-T	8r	2c
.	.	8en	.
32G	16c	.	.
32A-	.	.	.
8.Dn	8.cT	[4f	.
32E-	16Bn	.	.
32F	.	.	.
=7	=7	=7	=7
[4.G	4.Bnt	8f]	2Bn
.	.	8g	.
.	.	[4f	.
64G]	16An	.	.
64An	.	.	.
64Bn	.	.	.
64c	.	.	.
64d	16G	.	.
64e-	.	.	.
64f	.	.	.
64g	.	.	.
[8a-	4.c	8f]	2c
32a-]	.	8b-	.
32g	.	.	.
32f	.	.	.
32en	.	.	.
8.f	16r	[4a-	.
16Bn	16f	.	.
=8	=8	=8	=8
[8c	[4e-	8a-]	2e-
32c]	.	8g	.
32C	.	.	.
32D	.	.	.
32E-	.	.	.
[4F	16e-]	[4a-	.
.	16d	.	.
.	16c	.	.
.	16d	.	.
16F]	4.dt	8a-]	2d
16D	.	.	.
16E-	.	8cc	.
16F	.	.	.
16G	.	[4b-	.
16A-	.	.	.
16G	8c	.	.
16F	.	.	.
=9	=9	=9	=9
8.E-	[4c	8b-]	2c
.	.	8a-	.
32c	.	.	.
32d	.	.	.
8.e-	16c]	[4g	.
.	16Bn	.	.
.	16c	.	.
16f	16d	.	.
4.g	4.e-	8g]	2e-
.	.	8cc	.
.	.	[4g	.
32r	8f	.	.
32f	.	.	.
32e-	.	.	.
32d	.	.	.
=10	=10	=10	=10
8.c	[4g	8g]	2g
.	.	8an	.
16B-	.	.	.
8.A-	16g]	[4bn	.
.	16e-	.	.
.	16f	.	.
16G	16g	.	.
[8F	4.a-	8b]	2a-
32F]	.	8een	.
32C	.	.	.
32D	.	.	.
32En	.	.	.
8.F	.	[4bn	.
.	16r	.	.
16A-	16c	.	.
=11	=11	=11	=11
4G	[4Bn	8b]	2Bn
.	.	8cc	.
4r	16B]	2.dd	.
.	16G	.	.
.	16B	.	.
.	16d	.	.
8r	4.g	.	2g
16r	.	.	.
16e-	.	.	.
8.d	.	.	.
.	16r	.	.
16c	16an	.	.
=12	=12	=12	=12
8.d	4.f#t	16r	2f#
.	.	16cc	.
.	.	16dd	.
16An	.	16ee-	.
8.Bn	.	[4dd	.
.	16r	.	.
16c	16en	.	.
8.Bn	4.fn	8dd]	2fn
.	.	16cc	.
16G	.	16bn	.
8.A	.	[4ff	.
.	16r	.	.
16B	16g	.	.
=13	=13	=13	=13
8.c	4.en	8ff]	2en
.	.	16een	.
16G	.	16dd	.
8.c	.	[2.cc	.
.	16r	.	.
16B-	16d	.	.
8.A-	[2e-	.	2e-
16E-	.	.	.
8.A-	.	.	.
16G	.	.	.
=14	=14	=14	=14
4.F	8e-]	32cc]	2d
.	.	32b-	.
.	.	32a-	.
.	.	32g	.
.	8d	32f	.
.	.	32e-	.
.	.	32d	.
.	.	32c	.
.	8.d	[4Bn	.
32r	.	.	.
32G	.	.	.
32F	16d-	.	.
32En	.	.	.
8.F	8.d-T	16B]	2c
.	.	16c	.
.	.	16dn	.
32G	16c	16e-	.
32A-	.	.	.
8.Dn	8.cT	[4d	.
32E-	16Bn	.	.
32F	.	.	.
=15	=15	=15	=15
[4.G	4.Bnt	8d]	2Bn
.	.	8a-	.
.	.	[4g	.
64G]	16An	.	.
64An	.	.	.
64Bn	.	.	.
64c	.	.	.
64d	16G	.	.
64e-	.	.	.
64f	.	.	.
64g	.	.	.
[8a-	4.c	16g]	2c
.	.	16gg	.
32a-]	.	16ff	.
32g	.	.	.
32f	.	16ee-	.
32en	.	.	.
8.f	.	[4dd	.
.	16r	.	.
16Bn	16f	.	.
=16	=16	=16	=16
[8c	[4e-	4.dd]	2e-
32c]	.	.	.
32C	.	.	.
32D	.	.	.
32E-	.	.	.
[4F	16e-]	.	.
.	16d	.	.
.	16c	8ff	.
.	16d	.	.
16F]	4.dt	8ee-	2d
16D	.	.	.
16E-	.	8dd	.
16F	.	.	.
16G	.	8cc	.
16A-	.	.	.
16G	8c	8bn	.
16F	.	.	.
=17	=17	=17	=17
8.E-	[4c	8cc	2c
.	.	8dd	.
32c	.	.	.
32d	.	.	.
8.e-	16c]	[4ee-	.
.	16Bn	.	.
.	16c	.	.
16f	16d	.	.
4.g	4.e-	8ee-]	2e-
.	.	16g	.
.	.	16f	.
.	.	[4e-	.
32r	8f	.	.
32f	.	.	.
32e-	.	.	.
32d	.	.	.
=18	=18	=18	=18
8.c	[4g	8e-]	2g
.	.	8d	.
16B-	.	.	.
8.A-	16g]	2.c	.
.	16e-	.	.
.	16f	.	.
16G	16g	.	.
[8F	4.a-	.	2a-
32F]	.	.	.
32C	.	.	.
32D	.	.	.
32En	.	.	.
8.F	.	.	.
.	16r	.	.
16A-	16c	.	.
==:|!	==:|!	==:|!	==:|!
*-	*-	*-	*-
!!!CDT: 1685/3//-1750/7/28
!!!OCY: Deutschland
!!!ODT: 1747
!!!AFR: cantus firmus canon
!!!AST: polyphony
!!!AMT: simple quadruple
!!!SCA: Bach-Werke-Verzeichnis
!!!AIN: ?
!!!YEP: David Huron and Denis Collins
!!!YEN: Canada
!!!EEV: 1.0
!!!RDT: 1995 April 29
!!!YED: 1995 August 31
